X:20
T:La Tambourinette [ok]
R:
S:
N:
A:Champagne
G:
O:France
Z:<anamnese@laposte.net>
M:2/4
L:1/8
Q:1/4=135
K:C
C2 | F/F/F/F/ FF/F/ | FG AF | F/F/F/F/ FF/F/ | AG FC ::
FF FF/F/ | FGAF | GG GF/G/ | AG FC :|
